icons/login-box-fill.svg

<svg viewBox="0 0 24 24" fill="currentColor" xmlns="http://www.w3.org/2000/svg"><path d="M10 11H4V3C4 2.44772 4.44772 2 5 2H19C19.5523 2 20 2.44772 20 3V21C20 21.5523 19.5523 22 19 22H5C4.44772 22 4 21.5523 4 21V13H10V16L15 12L10 8V11Z"/></svg>

<svg xmlns="http://www.w3.org/2000/svg" viewBox="0 0 24 24">
    <g>
        <path fill="none" d="M0 0h24v24H0z"/>
        <path d="M10 11H4V3a1 1 0 0 1 1-1h14a1 1 0 0 1 1 1v18a1 1 0 0 1-1 1H5a1 1 0 0 1-1-1v-8h6v3l5-4-5-4v3z"/>
    </g>
</svg>
